!!!OTL: Hongjun zaozaolai
!!!ARE: Asia, China,ÿSichuan Bazhong
!! II, 233
!!!SCT: C2088
!!!YEM: Copyright 1995, estate of Helmut Schaffrath.
**kern
*ICvox
*Ivox
*M2/4
*k[]
*C:
{8dd
8a
8a
16a
16cc
=1
4dd
4ee
=2
8dd
8cc
8a
8cc
=3
4cc
4dd}
=4
{8dd
8dd
8cc
8a
=5
8ee
16ee
16dd
8cc
8dd
=6
16cc
16dd
8a
8dd
8cc
=7
8.g
16cc
8a
8cc
=8
8.g
16a
8g
8a
=9
16a
8g
16a
4cc}
=10
{8.cc
16a
8cc
8a
=11
8g
8g
8a
8a
=12
8.dd
16cc
8g
8g
=13
8a
16cc
16dd
8a
8cc}
=14
{2r
=15
8g
8a
8cc
8g
=16
16a
16cc
8a
4cc}
=17
{8a
8dd
8cc
8a
=18
2g}
==
!!!AGN: Shange
!!!AMT: simple duple
!!!AIN: vox
!!!EED: Helmut Schaffrath
!!!EEV: 1.0
*-
